localPackages/DesignSystem/Sources/DesignSystem/Resources/Assets.xcassets/IconSet/ic-users-merge.imageset/ic-users-merge.svg

<svg width="24" height="24" viewBox="0 0 24 24" fill="none" xmlns="http://www.w3.org/2000/svg">
<g id="ic-users-merge">
<path id="Icon" fill-rule="evenodd" clip-rule="evenodd" d="M6 4.55046C6.39849 4.55046 6.75 4.21919 6.75 3.77523C6.75 3.33127 6.39849 3 6 3C5.60151 3 5.25 3.33127 5.25 3.77523C5.25 4.21919 5.60151 4.55046 6 4.55046ZM6 6.05046C7.24264 6.05046 8.25 5.0318 8.25 3.77523C8.25 2.51865 7.24264 1.5 6 1.5C4.75736 1.5 3.75 2.51865 3.75 3.77523C3.75 5.0318 4.75736 6.05046 6 6.05046ZM4.42167 8.30887H7.15704C7.3977 8.30887 7.62948 8.42906 7.77235 8.64095L8.57179 9.8266C8.57518 9.83164 8.57701 9.83509 8.57789 9.83689L8.57879 9.8389L8.57902 9.83951C8.57902 9.83953 8.57899 9.83943 8.57895 9.83925L8.57881 9.83861L8.57873 9.838L8.57871 9.83781L8.57871 9.83775L8.57871 9.83783L8.5787 9.83807L8.57864 9.83909L8.57792 9.84325C8.57704 9.8471 8.57541 9.85175 8.57294 9.85646L8.57135 9.85933H3.00736L3.00577 9.85646C3.0033 9.85175 3.00167 9.8471 3.00078 9.84325L3.00007 9.83909L3 9.83807L3 9.83783L3 9.83775L3 9.83781L2.99998 9.838L2.99989 9.83861L2.99976 9.83925L2.99992 9.8389L3.00082 9.8369C3.0017 9.83509 3.00352 9.83164 3.00692 9.8266L3.80636 8.64095C3.94923 8.42905 4.18101 8.30887 4.42167 8.30887ZM2.56266 7.80238C2.98178 7.18077 3.67767 6.80887 4.42167 6.80887H7.15704C7.90104 6.80887 8.59693 7.18077 9.01605 7.80238L9.81549 8.98802C10.4944 9.9949 9.78128 11.3593 8.57615 11.3593H3.00256C1.79743 11.3593 1.08433 9.9949 1.76322 8.98803L2.56266 7.80238ZM4.42167 19.4495H7.15704C7.3977 19.4495 7.62948 19.5697 7.77235 19.7816L8.57179 20.9673C8.57518 20.9723 8.57701 20.9758 8.57789 20.9776L8.57879 20.9796L8.57902 20.9802C8.57902 20.9802 8.57899 20.9801 8.57895 20.9799L8.57881 20.9793L8.57873 20.9787L8.57871 20.9785L8.57871 20.9784L8.57871 20.9785L8.5787 20.9787L8.57864 20.9798L8.57792 20.9839C8.57704 20.9878 8.57541 20.9924 8.57294 20.9971L8.57135 21H3.00736L3.00577 20.9971C3.0033 20.9924 3.00167 20.9878 3.00078 20.9839L3.00007 20.9798L3 20.9787L3 20.9785L3 20.9784L3 20.9785L2.99998 20.9787L2.99989 20.9793L2.99976 20.9799L2.9997 20.9802L2.99992 20.9796L3.00082 20.9776C3.0017 20.9758 3.00352 20.9723 3.00692 20.9673L3.80636 19.7816C3.94923 19.5697 4.18101 19.4495 4.42167 19.4495ZM2.56266 18.9431C2.98178 18.3214 3.67767 17.9495 4.42167 17.9495H7.15704C7.90104 17.9495 8.59693 18.3214 9.01605 18.9431L9.81549 20.1287C10.4944 21.1356 9.78128 22.5 8.57615 22.5H3.00256C1.79743 22.5 1.08433 21.1356 1.76322 20.1287L2.56266 18.9431ZM6.75 15.1514C6.75 15.5953 6.39849 15.9266 6 15.9266C5.60151 15.9266 5.25 15.5953 5.25 15.1514C5.25 14.7074 5.60151 14.3761 6 14.3761C6.39849 14.3761 6.75 14.7074 6.75 15.1514ZM8.25 15.1514C8.25 16.4079 7.24264 17.4266 6 17.4266C4.75736 17.4266 3.75 16.4079 3.75 15.1514C3.75 13.8948 4.75736 12.8761 6 12.8761C7.24264 12.8761 8.25 13.8948 8.25 15.1514ZM11.25 18.1934H12H13.5C13.9142 18.1934 14.25 17.8576 14.25 17.4434V12.1177V6.79205C14.25 6.37783 13.9142 6.04205 13.5 6.04205H12H11.25V4.54205H12H13.5C14.7426 4.54205 15.75 5.54941 15.75 6.79205V11.3677H18.8751C19.1816 10.4797 20.0172 9.84251 21 9.84251C22.2426 9.84251 23.25 10.8612 23.25 12.1177C23.25 13.3743 22.2426 14.393 21 14.393C20.0172 14.393 19.1816 13.7558 18.8751 12.8677H15.75V17.4434C15.75 18.6861 14.7426 19.6934 13.5 19.6934H12H11.25V18.1934ZM21 11.3425C21.3985 11.3425 21.75 11.6738 21.75 12.1177C21.75 12.5617 21.3985 12.893 21 12.893C20.6015 12.893 20.25 12.5617 20.25 12.1177C20.25 11.6738 20.6015 11.3425 21 11.3425Z" fill="#0F0F0F"/>
</g>
</svg>

<svg xmlns="http://www.w3.org/2000/svg" width="24" height="24" viewBox="0 0 24 24">
  <g class="ic-users-merge">
    <path fill-rule="evenodd" d="M6 4.55c.398 0 .75-.33.75-.775A.763.763 0 0 0 6 3a.763.763 0 0 0-.75.775c0 .444.352.775.75.775Zm0 1.5c1.243 0 2.25-1.018 2.25-2.275C8.25 2.52 7.243 1.5 6 1.5S3.75 2.519 3.75 3.775C3.75 5.032 4.757 6.05 6 6.05ZM4.422 8.31h2.735c.24 0 .472.12.615.332l.8 1.186a.088.088 0 0 1 .006.01v.002h.001v-.001.001l-.001.004a.056.056 0 0 1-.005.013l-.002.003H3.007l-.001-.003A.057.057 0 0 1 3 9.843v-.004.001-.002l.007-.01.8-1.186a.743.743 0 0 1 .615-.332Zm-1.86-.507a2.243 2.243 0 0 1 1.86-.993h2.735c.744 0 1.44.372 1.859.993l.8 1.186c.678 1.007-.035 2.371-1.24 2.371H3.003c-1.206 0-1.919-1.364-1.24-2.371l.8-1.186Zm1.86 11.648h2.735c.24 0 .472.12.615.332l.8 1.185a.085.085 0 0 1 .006.01v.003h.001v-.001l-.001.005a.055.055 0 0 1-.005.013L8.57 21H3.007l-.001-.003A.056.056 0 0 1 3 20.984v-.005.001-.002l.007-.01.8-1.186a.743.743 0 0 1 .615-.332Zm-1.86-.507a2.243 2.243 0 0 1 1.86-.994h2.735c.744 0 1.44.372 1.859.994l.8 1.186c.678 1.007-.035 2.371-1.24 2.371H3.003c-1.206 0-1.919-1.364-1.24-2.371l.8-1.186Zm4.188-3.792a.763.763 0 0 1-.75.776.763.763 0 0 1-.75-.776c0-.444.352-.775.75-.775s.75.331.75.775Zm1.5 0c0 1.257-1.007 2.276-2.25 2.276s-2.25-1.02-2.25-2.276c0-1.256 1.007-2.275 2.25-2.275s2.25 1.019 2.25 2.275Zm3 3.042h2.25a.75.75 0 0 0 .75-.75V6.792a.75.75 0 0 0-.75-.75h-2.25v-1.5h2.25a2.25 2.25 0 0 1 2.25 2.25v4.576h3.125A2.253 2.253 0 0 1 21 9.843c1.243 0 2.25 1.018 2.25 2.275 0 1.256-1.007 2.275-2.25 2.275a2.253 2.253 0 0 1-2.125-1.525H15.75v4.575a2.25 2.25 0 0 1-2.25 2.25h-2.25v-1.5Zm9.75-6.85c.398 0 .75.33.75.775a.763.763 0 0 1-.75.775.763.763 0 0 1-.75-.775c0-.444.352-.776.75-.776Z" class="Icon"/>
  </g>
</svg>
